!!!!SEGMENT: pl-cz--iii-667--004_lscigalski-franciszek--litania-domus-aurea.krn
!!!cenid: 18xx:1081
!!!COM: Ścigalski, Franciszek
!!!COM-rismid: pe30002948
!!!CDT: 1782/01/29-1846/09/27
!!!CNT: Polish
!!!OPR: Litania
!!!OTL: Domus aurea
!!!OMV: 004
!!!PDT:
!!!AGN: Sacred; Mass
!!!SMS-siglum: PL-CZ
!!!SMS-shelfmark: III-667
!!!SMS-shelfwork: 001-004 M
!!!SMS-variant:
!!!SMS-altvar:
!!!NIFC-rismid: 300001311
!!!URL-scan: http://repozytorium.nifc.pl/skany/pl-cz-nut--iii-667
!!!ONB-nifc: UWAGA: części Litanii: Kyrie, Sancta Maria, Vas spirituale, Domus aurea, Regina angelorum, Agnus Dei
!!!key: d
**kern	**fba	**dynam	**kern	**dynam	**kern	**dynam	**kern	**text	**text	**dynam	**kern	**text	**dynam	**kern	**text	**dynam	**kern	**text	**dynam	**kern	**text	**dynam	**kern	**text	**text	**dynam	**kern	**kern	**kern	**kern	**dynam	**kern	**dynam
*	*	*	*group5	*	*group5	*	*group4	*	*	*	*group4	*	*	*group4	*	*	*group4	*	*	*group3	*	*	*group3	*	*	*	*group2	*group2	*group2	*group1	*	*group1	*
*part14	*	*part14	*part13	*part13	*part12	*part12	*part11	*part11	*part11	*part11	*part10	*part10	*part10	*part9	*part9	*part9	*part8	*part8	*part8	*part7	*part7	*part7	*part6	*part6	*part6	*part6	*part5	*part4	*part3	*part2	*part2	*part1	*part1
*staff14	*	*	*staff13	*	*staff12	*	*staff11	*staff11	*staff11	*	*staff10	*staff10	*	*staff9	*staff9	*	*staff8	*staff8	*	*staff7	*staff7	*	*staff6	*staff6	*staff6	*	*staff5	*staff4	*staff3	*staff2	*	*staff1	*
*I"Organo.	*	*	*I"Violino 2do	*	*I"Violino Imo	*	*I"Basſso. Baſso	*	*	*	*I"Tenore. Tenore.	*	*	*I"Alto. Coro Alto.	*	*	*I"Canto Coro Canto.	*	*	*I"Alto alto.	*	*	*I"Canto	*	*	*	*I"Duo Clarini in C.	*I"Corno 2do in F.	*I"Corno Imo in F.	*I"Clarinetto 2do in B.	*	*I"Clarinetto Imo in B.	*
*I'org	*	*	*I'vl 2	*	*I'vl 1	*	*I'Coro B	*	*	*	*I'Coro T	*	*	*I'Coro A	*	*	*I'Coro S	*	*	*I'A	*	*	*I'S	*	*	*	*I'clno 1 & 2 in C	*I'cor 2 in F	*I'cor 1	*I'cl 2 in B|b	*	*I'cl 1 in B|b	*
*Iorgan	*	*	*Ivioln	*	*Ivioln	*	*Ibass	*	*	*	*Itenor	*	*	*Ialto	*	*	*Isoprn	*	*	*Ialto	*	*	*Isoprn	*	*	*	*Itromp	*Icor	*Icor	*Iclars	*	*Iclars	*
*ICklav	*	*	*ICstr	*	*ICstr	*	*ICvox	*	*	*	*ICvox	*	*	*ICvox	*	*	*ICvox	*	*	*ICvox	*	*	*ICvox	*	*	*	*ICbras	*ICbras	*ICbras	*ICww	*	*ICww	*
*IGcont	*	*	*	*	*	*	*IGcoro	*	*	*	*IGcoro	*	*	*IGcoro	*	*	*IGcoro	*	*	*IGsolo	*	*	*IGsolo	*	*	*	*	*	*	*	*	*	*
*clefF4	*	*	*clefG2	*	*clefG2	*	*clefF4	*	*	*	*clefC4	*	*	*clefC3	*	*	*clefC1	*	*	*clefC3	*	*	*clefC1	*	*	*	*clefG2	*clefG2	*clefG2	*clefG2	*	*clefG2	*
*	*	*	*	*	*	*	*	*	*	*	*	*	*	*	*	*	*	*	*	*	*	*	*	*	*	*	*	*ITrd4c7	*ITrd4c7	*ITrd1c2	*	*ITrd1c2	*
*k[b-]	*	*	*k[b-]	*	*k[b-]	*	*k[b-]	*	*	*	*k[b-]	*	*	*k[b-]	*	*	*k[b-]	*	*	*k[b-]	*	*	*k[b-]	*	*	*	*k[b-]	*k[b-]	*k[b-]	*k[b-]	*	*k[b-]	*
*d:	*	*	*d:	*	*d:	*	*d:	*	*	*	*d:	*	*	*d:	*	*	*d:	*	*	*d:	*	*	*d:	*	*	*	*d:	*d:	*d:	*d:	*	*d:	*
*M2/2	*	*	*M2/2	*	*M2/2	*	*M2/2	*	*	*	*M2/2	*	*	*M2/2	*	*	*M2/2	*	*	*M2/2	*	*	*M2/2	*	*	*	*M2/2	*M2/2	*M2/2	*M2/2	*	*M2/2	*
*met(c|)	*	*	*met(c|)	*	*met(c|)	*	*met(c|)	*	*	*	*met(c|)	*	*	*met(c|)	*	*	*met(c|)	*	*	*met(c|)	*	*	*met(c|)	*	*	*	*met(c|)	*met(c|)	*met(c|)	*met(c|)	*	*met(c|)	*
=1	=1	=1	=1	=1	=1	=1	=1	=1	=1	=1	=1	=1	=1	=1	=1	=1	=1	=1	=1	=1	=1	=1	=1	=1	=1	=1	=1	=1	=1	=1	=1	=1	=1
!	!	!	!	!	!	!	!LO:TX:a:t=2	!	!	!	!LO:TX:a:t=4.	!	!	!LO:TX:a:t=4.	!	!	!LO:TX:a:t=4.	!	!	!LO:TX:a:t=4.	!	!	!LO:TX:a:t=4.	!	!	!	!	!	!	!LO:TX:a:t=20.	!	!LO:TX:a:t=20	!
!LO:TX:a:i:rj:t=Larghetto	!	!LO:DY:b:rj:t=p.	!LO:TX:a:i:rj:t=Largheto	!LO:DY:b:rj:t=p.	!LO:TX:a:i:rj:t=Larghetto	!LO:DY:b:rj:t=p.	!LO:TX:a:i:rj:t=Larghetto	!	!	!	!LO:TX:a:i:rj:t=Larghetto	!	!	!LO:TX:a:i:rj:t=Larghetto	!	!	!LO:TX:a:i:rj:t=Larghetto	!	!	!LO:TX:a:i:rj:t=Larghetto	!	!	!LO:TX:a:i:rj:t=Larghetto	!	!	!	!LO:TX:a:i:t=Domus aurea Tacet	!LO:TX:a:i:t=Domus aurea Tacet.	!LO:TX:a:i:t=Domus aurea Tacet.	!LO:TX:a:i:rj:t=Larghetto	!	!LO:TX:a:i:rj:t=Larghetto	!
4D\	5_ 3_	p	8dL 8A'/	p	8f'/L	p	0r	.	.	.	00r	.	.	00r	.	.	00r	.	.	00r	.	.	00r	.	.	.	1ryy	1ryy	1ryy	00r	.	00r	.
.	.	.	8dJ 8A'/	.	8f'/J	.	.	.	.	.	.	.	.	.	.	.	.	.	.	.	.	.	.	.	.	.	.	.	.	.	.	.	.
4F\	.	.	8r	.	8r	.	.	.	.	.	.	.	.	.	.	.	.	.	.	.	.	.	.	.	.	.	.	.	.	.	.	.	.
.	.	.	8d [8A/	.	[8f/	.	.	.	.	.	.	.	.	.	.	.	.	.	.	.	.	.	.	.	.	.	.	.	.	.	.	.	.
4A\	.	.	8dL 8A/]	.	8f/L]	.	.	.	.	.	.	.	.	.	.	.	.	.	.	.	.	.	.	.	.	.	.	.	.	.	.	.	.
.	.	.	8dJ 8A'/	.	8f'/J	.	.	.	.	.	.	.	.	.	.	.	.	.	.	.	.	.	.	.	.	.	.	.	.	.	.	.	.
4F\	.	.	8r	.	8r	.	.	.	.	.	.	.	.	.	.	.	.	.	.	.	.	.	.	.	.	.	.	.	.	.	.	.	.
.	.	.	8d [8A/	.	[8f/	.	.	.	.	.	.	.	.	.	.	.	.	.	.	.	.	.	.	.	.	.	.	.	.	.	.	.	.
=2	=2	=2	=2	=2	=2	=2	=2	=2	=2	=2	=2	=2	=2	=2	=2	=2	=2	=2	=2	=2	=2	=2	=2	=2	=2	=2	=2	=2	=2	=2	=2	=2	=2
*2\right	*	*	*	*	*	*	*	*	*	*	*	*	*	*	*	*	*	*	*	*	*	*	*	*	*	*	*	*	*	*	*	*	*
[2D\	.	.	8dL 8A/]	.	8f/L]	.	.	.	.	.	.	.	.	.	.	.	.	.	.	.	.	.	.	.	.	.	1ryy	1ryy	1ryy	.	.	.	.
.	.	.	8dJ 8A'/	.	8f'/J	.	.	.	.	.	.	.	.	.	.	.	.	.	.	.	.	.	.	.	.	.	.	.	.	.	.	.	.
.	.	.	8r	.	8r	.	.	.	.	.	.	.	.	.	.	.	.	.	.	.	.	.	.	.	.	.	.	.	.	.	.	.	.
.	.	.	8d [8A/	.	[8f/	.	.	.	.	.	.	.	.	.	.	.	.	.	.	.	.	.	.	.	.	.	.	.	.	.	.	.	.
4D\]	X X	.	4d 4A/]	.	4f/]	.	.	.	.	.	.	.	.	.	.	.	.	.	.	.	.	.	.	.	.	.	.	.	.	.	.	.	.
4r	.	.	4r	.	4r	.	.	.	.	.	.	.	.	.	.	.	.	.	.	.	.	.	.	.	.	.	.	.	.	.	.	.	.
=3	=3	=3	=3	=3	=3	=3	=3	=3	=3	=3	=3	=3	=3	=3	=3	=3	=3	=3	=3	=3	=3	=3	=3	=3	=3	=3	=3	=3	=3	=3	=3	=3	=3
*	*	*	*	*	*	*	*2\right	*	*	*	*	*	*	*	*	*	*	*	*	*	*	*	*	*	*	*	*	*	*	*	*	*	*
!LO:TX:a:t=2.	!	!	!LO:TX:a:t=2.	!	!LO:TX:a:t=2	!	!LO:TX:a:rj:t=Solo	!	!	!	!	!	!	!	!	!	!	!	!	!	!	!	!	!	!	!	!	!	!	!	!	!	!
0r	.	.	0r	.	0r	.	2.d\	Do-	Con-	.	.	.	.	.	.	.	.	.	.	.	.	.	.	.	.	.	1ryy	1ryy	1ryy	.	.	.	.
.	.	.	.	.	.	.	4A\	-mus	-so-	.	.	.	.	.	.	.	.	.	.	.	.	.	.	.	.	.	.	.	.	.	.	.	.
=4	=4	=4	=4	=4	=4	=4	=4	=4	=4	=4	=4	=4	=4	=4	=4	=4	=4	=4	=4	=4	=4	=4	=4	=4	=4	=4	=4	=4	=4	=4	=4	=4	=4
.	.	.	.	.	.	.	4.F\	au-	-la-	.	.	.	.	.	.	.	.	.	.	.	.	.	.	.	.	.	1ryy	1ryy	1ryy	.	.	.	.
.	.	.	.	.	.	.	8E\	-re-	.	.	.	.	.	.	.	.	.	.	.	.	.	.	.	.	.	.	.	.	.	.	.	.	.
.	.	.	.	.	.	.	2D\	-a	-trix	.	.	.	.	.	.	.	.	.	.	.	.	.	.	.	.	.	.	.	.	.	.	.	.
=5	=5	=5	=5	=5	=5	=5	=5	=5	=5	=5	=5	=5	=5	=5	=5	=5	=5	=5	=5	=5	=5	=5	=5	=5	=5	=5	=5	=5	=5	=5	=5	=5	=5
!	!	!	!	!	!	!	!LO:TX:a:t=2	!	!	!	!	!	!	!	!	!	!	!	!	!	!	!	!	!	!	!LO:DY:b	!	!	!	!	!	!	!
4D\	5_ 3_	.	8dL 8A'/	.	8f/L	.	0r	.	.	.	4r	.	.	4r	.	.	4r	.	.	4r	.	.	4r	.	.	p	1ryy	1ryy	1ryy	00r	.	00r	.
!	!	!	!	!	!	!	!	!	!	!	!	!	!LO:DY:b	!	!	!LO:DY:b	!	!	!LO:DY:b:t=p.	!	!	!LO:DY:b:t=p.	!	!	!	!	!	!	!	!	!	!	!
.	.	.	8dJ 8A'/	.	8f/J	.	.	.	.	.	.	.	p	.	.	p	.	.	p	.	.	p	.	.	.	.	.	.	.	.	.	.	.
4F\	.	.	8r	.	8r	.	.	.	.	.	4A\	o-	.	4d\	o-	.	4f/	o-	.	4d\	o-	.	4f/	o-	.	.	.	.	.	.	.	.	.
.	.	.	8d [8A/	.	[8f/	.	.	.	.	.	.	.	.	.	.	.	.	.	.	.	.	.	.	.	.	.	.	.	.	.	.	.	.
4A\	.	.	8dL 8A/]	.	8f/L]	.	.	.	.	.	4A\	-ra	.	4d\	-ra	.	4f/	-ra	.	4d\	-ra	.	4f/	-ra	.	.	.	.	.	.	.	.	.
.	.	.	8dJ 8A'/	.	8f'/J	.	.	.	.	.	.	.	.	.	.	.	.	.	.	.	.	.	.	.	.	.	.	.	.	.	.	.	.
4F\	.	.	8r	.	8r	.	.	.	.	.	4A\	pro	.	4d\	pro	.	4f/	pro	.	4d\	pro	.	4f/	pro	.	.	.	.	.	.	.	.	.
.	.	.	8d [8A/	.	[8f/	.	.	.	.	.	.	.	.	.	.	.	.	.	.	.	.	.	.	.	.	.	.	.	.	.	.	.	.
!	!	!	!	!	!LO:LB:g=original	!	!	!	!	!	!	!	!	!	!	!	!	!	!	!	!	!	!	!	!	!	!	!	!	!	!	!	!
=6	=6	=6	=6	=6	=6	=6	=6	=6	=6	=6	=6	=6	=6	=6	=6	=6	=6	=6	=6	=6	=6	=6	=6	=6	=6	=6	=6	=6	=6	=6	=6	=6	=6
*	*	*	*	*	*	*	*	*	*	*	*2\right	*	*	*2\right	*	*	*	*	*	*2\right	*	*	*	*	*	*	*	*	*	*	*	*	*
2D\	.	.	8dL 8A/]	.	8f/L]	.	.	.	.	.	2A\	no-	.	2d\	no-	.	2f/	no-	.	2d\	no-	.	2f/	no-	.	.	1ryy	1ryy	1ryy	.	.	.	.
.	.	.	8dJ 8A'/	.	8f'/J	.	.	.	.	.	.	.	.	.	.	.	.	.	.	.	.	.	.	.	.	.	.	.	.	.	.	.	.
.	.	.	8r	.	8r	.	.	.	.	.	.	.	.	.	.	.	.	.	.	.	.	.	.	.	.	.	.	.	.	.	.	.	.
.	.	.	8d [8A/	.	[8f/	.	.	.	.	.	.	.	.	.	.	.	.	.	.	.	.	.	.	.	.	.	.	.	.	.	.	.	.
4D\	X X	.	4d 4A/]	.	4f/]	.	.	.	.	.	4A\	-bis	.	4d\	-bis	.	4f/	-bis	.	4d\	-bis	.	4f/	-bis	.	.	.	.	.	.	.	.	.
4r	.	.	4r	.	4r	.	.	.	.	.	4r	.	.	4r	.	.	4r	.	.	4r	.	.	4r	.	.	.	.	.	.	.	.	.	.
!	!	!	!LO:LB:g=original	!	!	!	!	!	!	!	!	!	!	!	!	!	!	!	!	!	!	!	!	!	!	!	!	!	!	!	!	!	!
=7	=7	=7	=7	=7	=7	=7	=7	=7	=7	=7	=7	=7	=7	=7	=7	=7	=7	=7	=7	=7	=7	=7	=7	=7	=7	=7	=7	=7	=7	=7	=7	=7	=7
!LO:TX:a:t=2.	!	!	!LO:TX:a:t=2.	!	!LO:TX:a:t=2	!	!	!	!	!	!LO:TX:a:t=2	!	!	!LO:TX:a:t=2	!	!	!LO:TX:a:t=2.	!	!	!LO:TX:a:t=2.	!	!	!LO:TX:a:t=2.	!	!	!	!	!	!	!	!	!	!
0r	.	.	0r	.	0r	.	2A\	Foe-	af-	.	0r	.	.	0r	.	.	0r	.	.	0r	.	.	0r	.	.	.	1ryy	1ryy	1ryy	.	.	.	.
.	.	.	.	.	.	.	4A\	-de-	-fli-	.	.	.	.	.	.	.	.	.	.	.	.	.	.	.	.	.	.	.	.	.	.	.	.
.	.	.	.	.	.	.	4E\	-ris	.	.	.	.	.	.	.	.	.	.	.	.	.	.	.	.	.	.	.	.	.	.	.	.	.
=8	=8	=8	=8	=8	=8	=8	=8	=8	=8	=8	=8	=8	=8	=8	=8	=8	=8	=8	=8	=8	=8	=8	=8	=8	=8	=8	=8	=8	=8	=8	=8	=8	=8
.	.	.	.	.	.	.	(4.C#X/	ar-	-cto-	.	.	.	.	.	.	.	.	.	.	.	.	.	.	.	.	.	1ryy	1ryy	1ryy	.	.	.	.
.	.	.	.	.	.	.	8BBn/)	.	.	.	.	.	.	.	.	.	.	.	.	.	.	.	.	.	.	.	.	.	.	.	.	.	.
.	.	.	.	.	.	.	2AA/	-ca	-rum	.	.	.	.	.	.	.	.	.	.	.	.	.	.	.	.	.	.	.	.	.	.	.	.
!LO:LB:g=original	!	!	!	!	!	!	!LO:LB:g=original	!	!	!	!	!	!	!	!	!	!	!	!	!	!	!	!LO:LB:g=original	!	!	!	!	!	!	!	!	!	!
=9	=9	=9	=9	=9	=9	=9	=9	=9	=9	=9	=9	=9	=9	=9	=9	=9	=9	=9	=9	=9	=9	=9	=9	=9	=9	=9	=9	=9	=9	=9	=9	=9	=9
!	!	!	!	!	!	!	!LO:TX:a:t=2.	!	!	!	!	!	!	!	!	!	!	!	!	!	!	!	!	!	!	!	!	!	!	!	!	!	!
4AA/	5_ #_	.	8c#X'/L	.	8e'/L	.	0r	.	.	.	4r	.	.	4r	.	.	4r	.	.	4r	.	.	4r	.	.	.	1ryy	1ryy	1ryy	00r	.	00r	.
.	.	.	8c#'/J	.	8e'/J	.	.	.	.	.	.	.	.	.	.	.	.	.	.	.	.	.	.	.	.	.	.	.	.	.	.	.	.
4C#X/	.	.	8r	.	8r	.	.	.	.	.	4A\	o-	.	4c#X\	o-	.	4e/	o-	.	4c#X\	o-	.	4e/	o-	.	.	.	.	.	.	.	.	.
.	.	.	[8c#/	.	[8e/	.	.	.	.	.	.	.	.	.	.	.	.	.	.	.	.	.	.	.	.	.	.	.	.	.	.	.	.
4E/	.	.	8c#/L]	.	8e/L]	.	.	.	.	.	4A\	-ra	.	4c#\	-ra	.	4e/	-ra	.	4c#\	-ra	.	4e/	-ra	.	.	.	.	.	.	.	.	.
.	.	.	8c#'/J	.	8e'/J	.	.	.	.	.	.	.	.	.	.	.	.	.	.	.	.	.	.	.	.	.	.	.	.	.	.	.	.
4C#/	.	.	8r	.	8r	.	.	.	.	.	4A\	pro	.	4c#\	pro	.	4e/	pro	.	4c#\	pro	.	4e/	pro	.	.	.	.	.	.	.	.	.
.	.	.	[8c#/	.	[8e/	.	.	.	.	.	.	.	.	.	.	.	.	.	.	.	.	.	.	.	.	.	.	.	.	.	.	.	.
=10	=10	=10	=10	=10	=10	=10	=10	=10	=10	=10	=10	=10	=10	=10	=10	=10	=10	=10	=10	=10	=10	=10	=10	=10	=10	=10	=10	=10	=10	=10	=10	=10	=10
2AA/	.	.	8c#/L]	.	8e/L]	.	.	.	.	.	2A\	no-	.	2c#X\	no-	.	2e/	no-	.	2c#X\	no-	.	2e/	no-	.	.	1ryy	1ryy	1ryy	.	.	.	.
.	.	.	8c#y/J	.	8e'/J	.	.	.	.	.	.	.	.	.	.	.	.	.	.	.	.	.	.	.	.	.	.	.	.	.	.	.	.
.	.	.	8r	.	8r	.	.	.	.	.	.	.	.	.	.	.	.	.	.	.	.	.	.	.	.	.	.	.	.	.	.	.	.
.	.	.	[8c#/	.	8e/	.	.	.	.	.	.	.	.	.	.	.	.	.	.	.	.	.	.	.	.	.	.	.	.	.	.	.	.
4AA/	X X	.	4c#/]	.	4e/	.	.	.	.	.	4A\	-bis	.	4c#\	-bis	.	4e/	-bis	.	4c#\	-bis	.	4e/	-bis	.	.	.	.	.	.	.	.	.
4r	.	.	4r	.	4r	.	.	.	.	.	4r	.	.	4r	.	.	4r	.	.	4r	.	.	4r	.	.	.	.	.	.	.	.	.	.
!	!	!	!	!	!	!	!	!	!	!	!LO:LB:g=original	!	!	!LO:LB:g=original	!	!	!	!	!	!LO:LB:g=original	!	!	!	!	!	!	!	!	!	!	!	!	!
=11	=11	=11	=11	=11	=11	=11	=11	=11	=11	=11	=11	=11	=11	=11	=11	=11	=11	=11	=11	=11	=11	=11	=11	=11	=11	=11	=11	=11	=11	=11	=11	=11	=11
!LO:TX:a:t=2	!	!	!LO:TX:a:t=2.	!	!LO:TX:a:t=2.	!	!	!	!	!	!LO:TX:a:t=2	!	!	!LO:TX:a:t=2	!	!	!LO:TX:a:t=2.	!	!	!LO:TX:a:t=2.	!	!	!LO:TX:a:t=2	!	!	!	!	!	!	!	!	!	!
0r	.	.	0r	.	0r	.	2D\	Ja-	Ex	.	0r	.	.	0r	.	.	0r	.	.	0r	.	.	0r	.	.	.	1ryy	1ryy	1ryy	.	.	.	.
.	.	.	.	.	.	.	4E\	-nu-	pur-	.	.	.	.	.	.	.	.	.	.	.	.	.	.	.	.	.	.	.	.	.	.	.	.
.	.	.	.	.	.	.	4F#X\	-a	.	.	.	.	.	.	.	.	.	.	.	.	.	.	.	.	.	.	.	.	.	.	.	.	.
=12	=12	=12	=12	=12	=12	=12	=12	=12	=12	=12	=12	=12	=12	=12	=12	=12	=12	=12	=12	=12	=12	=12	=12	=12	=12	=12	=12	=12	=12	=12	=12	=12	=12
.	.	.	.	.	.	.	(4.A^\	coe-	-ga-	.	.	.	.	.	.	.	.	.	.	.	.	.	.	.	.	.	1ryy	1ryy	1ryy	.	.	.	.
.	.	.	.	.	.	.	8G\)	.	.	.	.	.	.	.	.	.	.	.	.	.	.	.	.	.	.	.	.	.	.	.	.	.	.
.	.	.	.	.	.	.	2G\	-li	-tor	.	.	.	.	.	.	.	.	.	.	.	.	.	.	.	.	.	.	.	.	.	.	.	.
!	!	!	!	!	!	!	!	!	!	!	!	!	!	!	!	!	!LO:LB:g=original	!	!	!	!	!	!	!	!	!	!	!	!	!	!	!	!
=13	=13	=13	=13	=13	=13	=13	=13	=13	=13	=13	=13	=13	=13	=13	=13	=13	=13	=13	=13	=13	=13	=13	=13	=13	=13	=13	=13	=13	=13	=13	=13	=13	=13
!	!	!	!	!	!	!	!LO:TX:a:t=2	!	!	!	!	!	!	!	!	!	!	!	!	!	!	!	!	!	!	!	!	!	!	!	!	!	!
4GG/	8_ 5_ 3_	.	8dL 8B-'/	.	8g'/L	.	0r	.	.	.	4r	.	.	4r	.	.	4r	.	.	4r	.	.	4r	.	.	.	1ryy	1ryy	1ryy	00r	.	00r	.
.	.	.	8dJ 8B-'/	.	8g'/J	.	.	.	.	.	.	.	.	.	.	.	.	.	.	.	.	.	.	.	.	.	.	.	.	.	.	.	.
4BB-/	.	.	8r	.	8r	.	.	.	.	.	4B-\	o-	.	4d\	o-	.	4g/	o-	.	4d\	o-	.	4g/	o-	.	.	.	.	.	.	.	.	.
.	.	.	8d [8B-/	.	[8g/	.	.	.	.	.	.	.	.	.	.	.	.	.	.	.	.	.	.	.	.	.	.	.	.	.	.	.	.
4D/	.	.	8dL 8B-/]	.	8g/L]	.	.	.	.	.	4B-\	-ra	.	4d\	-ra	.	4g/	-ra	.	4d\	-ra	.	4g/	-ra	.	.	.	.	.	.	.	.	.
.	.	.	8dJ 8B-'/	.	8g'/J	.	.	.	.	.	.	.	.	.	.	.	.	.	.	.	.	.	.	.	.	.	.	.	.	.	.	.	.
4BB-/	.	.	8r	.	8r	.	.	.	.	.	4B-\	pro	.	4d\	pro	.	4g/	pro	.	4d\	pro	.	4g/	pro	.	.	.	.	.	.	.	.	.
.	.	.	8d [8B-/	.	[8g/	.	.	.	.	.	.	.	.	.	.	.	.	.	.	.	.	.	.	.	.	.	.	.	.	.	.	.	.
=14	=14	=14	=14	=14	=14	=14	=14	=14	=14	=14	=14	=14	=14	=14	=14	=14	=14	=14	=14	=14	=14	=14	=14	=14	=14	=14	=14	=14	=14	=14	=14	=14	=14
2GG/	.	.	8dL 8B-/]	.	8g/L]	.	.	.	.	.	2B-\	no-	.	2d\	no-	.	2g/	no-	.	2d\	no-	.	2g/	no-	.	.	1ryy	1ryy	1ryy	.	.	.	.
.	.	.	8dJ 8B-'/	.	8g'/J	.	.	.	.	.	.	.	.	.	.	.	.	.	.	.	.	.	.	.	.	.	.	.	.	.	.	.	.
.	.	.	8r	.	8r	.	.	.	.	.	.	.	.	.	.	.	.	.	.	.	.	.	.	.	.	.	.	.	.	.	.	.	.
.	.	.	8d [8B-/	.	[8g/	.	.	.	.	.	.	.	.	.	.	.	.	.	.	.	.	.	.	.	.	.	.	.	.	.	.	.	.
4GG/	X X X	.	4d 4B-/]	.	4g/]	.	.	.	.	.	4B-\	-bis	.	4d\	-bis	.	4g/	-bis	.	4d\	-bis	.	4g/	-bis	.	.	.	.	.	.	.	.	.
4r	.	.	4r	.	4r	.	.	.	.	.	4r	.	.	4r	.	.	4r	.	.	4r	.	.	4r	.	.	.	.	.	.	.	.	.	.
=15	=15	=15	=15	=15	=15	=15	=15	=15	=15	=15	=15	=15	=15	=15	=15	=15	=15	=15	=15	=15	=15	=15	=15	=15	=15	=15	=15	=15	=15	=15	=15	=15	=15
!LO:TX:a:t=1	!	!	!LO:TX:a:t=1.	!	!LO:TX:a:t=1.	!	!	!	!	!	!LO:TX:a:t=2.	!	!	!LO:TX:a:t=2.	!	!	!LO:TX:a:t=2.	!	!	!LO:TX:a:t=2	!	!	!LO:TX:a:t=2.	!	!	!	!	!	!	!	!	!	!
1r	.	.	1r	.	1r	.	4.d\	Stel-	ha-	.	0r	.	.	0r	.	.	0r	.	.	0r	.	.	0r	.	.	.	1ryy	1ryy	1ryy	.	.	.	.
.	.	.	.	.	.	.	8d\	-la	-re	.	.	.	.	.	.	.	.	.	.	.	.	.	.	.	.	.	.	.	.	.	.	.	.
.	.	.	.	.	.	.	4d\	ma-	ſum	.	.	.	.	.	.	.	.	.	.	.	.	.	.	.	.	.	.	.	.	.	.	.	.
.	.	.	.	.	.	.	4G#X\	-tu-	ha-	.	.	.	.	.	.	.	.	.	.	.	.	.	.	.	.	.	.	.	.	.	.	.	.
!	!	!	!	!	!LO:LB:g=original	!	!	!	!	!	!	!	!	!	!	!	!	!	!	!	!	!	!	!	!	!	!	!	!	!	!	!	!
=16	=16	=16	=16	=16	=16	=16	=16	=16	=16	=16	=16	=16	=16	=16	=16	=16	=16	=16	=16	=16	=16	=16	=16	=16	=16	=16	=16	=16	=16	=16	=16	=16	=16
!	!	!LO:DY:b:rj	!	!	!	!	!	!	!	!	!	!	!	!	!	!	!	!	!	!	!	!	!	!	!	!	!	!	!	!	!	!	!
4AA/	5_ #_	p	8c#X/L	.	8e'/L	.	4A\	-ti-	-re-	.	.	.	.	.	.	.	.	.	.	.	.	.	.	.	.	.	1ryy	1ryy	1ryy	.	.	.	.
.	.	.	8c#/J	.	8e'/J	.	.	.	.	.	.	.	.	.	.	.	.	.	.	.	.	.	.	.	.	.	.	.	.	.	.	.	.
4AA/	.	.	8r	.	8r	.	4AA/	-na	-ſum	.	.	.	.	.	.	.	.	.	.	.	.	.	.	.	.	.	.	.	.	.	.	.	.
.	.	.	[8c#/	.	[8e/	.	.	.	.	.	.	.	.	.	.	.	.	.	.	.	.	.	.	.	.	.	.	.	.	.	.	.	.
!	!	!	!LO:LB:g=original	!	!	!	!	!	!	!	!	!	!	!	!	!	!	!	!	!	!	!	!	!	!	!	!	!	!	!	!	!	!
4AA/	.	.	8c#X/L]	.	8e/L]	.	2r	.	.	.	.	.	.	.	.	.	.	.	.	.	.	.	.	.	.	.	.	.	.	.	.	.	.
.	.	.	8c#'/J	.	8e'/J	.	.	.	.	.	.	.	.	.	.	.	.	.	.	.	.	.	.	.	.	.	.	.	.	.	.	.	.
4AA/	.	.	8r	.	8r	.	.	.	.	.	.	.	.	.	.	.	.	.	.	.	.	.	.	.	.	.	.	.	.	.	.	.	.
.	.	.	(8c#/	.	(8e/	.	.	.	.	.	.	.	.	.	.	.	.	.	.	.	.	.	.	.	.	.	.	.	.	.	.	.	.
=17	=17	=17	=17	=17	=17	=17	=17	=17	=17	=17	=17	=17	=17	=17	=17	=17	=17	=17	=17	=17	=17	=17	=17	=17	=17	=17	=17	=17	=17	=17	=17	=17	=17
!	!	!	!	!	!	!	!LO:TX:a:t=Tutti	!	!	!LO:DY:b:t=p.	!	!	!	!	!	!	!	!	!	!	!	!	!	!	!	!	!	!	!	!	!	!	!
4AA/	6_ 4_	.	8dL 8A/)	.	8f/L)	.	4r	.	.	p	4r	.	.	4r	.	.	4r	.	.	4r	.	.	4r	.	.	.	1ryy	1ryy	1ryy	00r;	.	00r;	.
.	.	.	8dJ 8A'/	.	8f'/J	.	.	.	.	.	.	.	.	.	.	.	.	.	.	.	.	.	.	.	.	.	.	.	.	.	.	.	.
4AA/	.	.	8r	.	8r	.	4AA/	o-	.	.	4A\	o-	.	4d\	o-	.	4f/	o-	.	4d\	o-	.	4f/	o-	.	.	.	.	.	.	.	.	.
.	.	.	8d [8A/	.	[8f/	.	.	.	.	.	.	.	.	.	.	.	.	.	.	.	.	.	.	.	.	.	.	.	.	.	.	.	.
4AA/	.	.	8dL 8A/]	.	8f/L]	.	4AA/	-ra	.	.	4A\	-ra	.	4d\	-ra	.	4f/	-ra	.	4d\	-ra	.	4f/	-ra	.	.	.	.	.	.	.	.	.
.	.	.	8dJ 8A'/	.	8f'/J	.	.	.	.	.	.	.	.	.	.	.	.	.	.	.	.	.	.	.	.	.	.	.	.	.	.	.	.
4AA/	.	.	8r	.	8r	.	4AA/	pro	.	.	4A\	pro	.	4d\	pro	.	4f/	pro	.	4d\	pro	.	4f/	pro	.	.	.	.	.	.	.	.	.
.	.	.	(8d 8A/	.	(8f/	.	.	.	.	.	.	.	.	.	.	.	.	.	.	.	.	.	.	.	.	.	.	.	.	.	.	.	.
!	!	!	!	!	!	!	!LO:LB:g=original	!	!	!	!	!	!	!	!	!	!	!	!	!	!	!	!LO:LB:g=original	!	!	!	!	!	!	!	!	!	!
=18	=18	=18	=18	=18	=18	=18	=18	=18	=18	=18	=18	=18	=18	=18	=18	=18	=18	=18	=18	=18	=18	=18	=18	=18	=18	=18	=18	=18	=18	=18	=18	=18	=18
4AA/	5_ #_	.	8c#X/L)	.	8e/L)	.	2AA/	no-	.	.	2A\	no-	.	2c#X\	no-	.	2e/	no-	.	2c#X\	no-	.	2e/	no-	.	.	1ryy	1ryy	1ryy	.	.	.	.
.	.	.	8c#'/J	.	8e'/J	.	.	.	.	.	.	.	.	.	.	.	.	.	.	.	.	.	.	.	.	.	.	.	.	.	.	.	.
4AA/	.	.	8r	.	8r	.	.	.	.	.	.	.	.	.	.	.	.	.	.	.	.	.	.	.	.	.	.	.	.	.	.	.	.
.	.	.	[8c#/	.	[8e/	.	.	.	.	.	.	.	.	.	.	.	.	.	.	.	.	.	.	.	.	.	.	.	.	.	.	.	.
4AA/	.	.	8c#/L]	.	8e/L]	.	4AA/	-bis	.	.	4A\	-bis	.	4c#\	-bis	.	4e/	-bis	.	4c#\	-bis	.	4e/	-bis	.	.	.	.	.	.	.	.	.
.	.	.	8c#'/J	.	8e'/J	.	.	.	.	.	.	.	.	.	.	.	.	.	.	.	.	.	.	.	.	.	.	.	.	.	.	.	.
4AA/	.	.	8r	.	8r	.	4AA/	pro	.	.	4A\	pro	.	4c#\	pro	.	4e/	pro	.	4c#\	pro	.	4e/	pro	.	.	.	.	.	.	.	.	.
.	.	.	(8c#/	.	(8e/	.	.	.	.	.	.	.	.	.	.	.	.	.	.	.	.	.	.	.	.	.	.	.	.	.	.	.	.
!LO:LB:g=original	!	!	!	!	!	!	!	!	!	!	!	!	!	!	!	!	!	!	!	!	!	!	!	!	!	!	!	!	!	!	!	!	!
=19	=19	=19	=19	=19	=19	=19	=19	=19	=19	=19	=19	=19	=19	=19	=19	=19	=19	=19	=19	=19	=19	=19	=19	=19	=19	=19	=19	=19	=19	=19	=19	=19	=19
4AA/	6_ 4_	.	8dL 8A/)	.	8f/L)	.	1AA	no-	no-	.	1A	no-	.	1d	no-	.	1f	no-	.	1d	no-	.	1f	no-	.	.	1ryy	1ryy	1ryy	.	.	.	.
.	.	.	8dJ 8A'/	.	8f'/J	.	.	.	.	.	.	.	.	.	.	.	.	.	.	.	.	.	.	.	.	.	.	.	.	.	.	.	.
4AA/	.	.	8r	.	8r	.	.	.	.	.	.	.	.	.	.	.	.	.	.	.	.	.	.	.	.	.	.	.	.	.	.	.	.
.	.	.	8d [8A/	.	[8f/	.	.	.	.	.	.	.	.	.	.	.	.	.	.	.	.	.	.	.	.	.	.	.	.	.	.	.	.
4AA/	.	.	8dL 8A/]	.	8f/L]	.	.	.	.	.	.	.	.	.	.	.	.	.	.	.	.	.	.	.	.	.	.	.	.	.	.	.	.
.	.	.	8dJ 8A'/	.	8f'/J	.	.	.	.	.	.	.	.	.	.	.	.	.	.	.	.	.	.	.	.	.	.	.	.	.	.	.	.
4AA/	.	.	8r	.	8r	.	.	.	.	.	.	.	.	.	.	.	.	.	.	.	.	.	.	.	.	.	.	.	.	.	.	.	.
.	.	.	(8d 8A/	.	(8f/	.	.	.	.	.	.	.	.	.	.	.	.	.	.	.	.	.	.	.	.	.	.	.	.	.	.	.	.
=20	=20	=20	=20	=20	=20	=20	=20	=20	=20	=20	=20	=20	=20	=20	=20	=20	=20	=20	=20	=20	=20	=20	=20	=20	=20	=20	=20	=20	=20	=20	=20	=20	=20
4AA/	5_ #_	.	8c#X/L)	.	8e/L)	.	[2AA/	-bis	-bis	.	[2A\	-bis	.	[2c#X\	-bis	.	[2e/	-bis	.	[2c#X\	-bis	.	[2e/	-bis	.	.	1ryy	1ryy	1ryy	.	.	.	.
.	.	.	8c#'/J	.	8e'/J	.	.	.	.	.	.	.	.	.	.	.	.	.	.	.	.	.	.	.	.	.	.	.	.	.	.	.	.
4AA/	.	.	8r	.	8r	.	.	.	.	.	.	.	.	.	.	.	.	.	.	.	.	.	.	.	.	.	.	.	.	.	.	.	.
.	.	.	[8c#/	.	8e/	.	.	.	.	.	.	.	.	.	.	.	.	.	.	.	.	.	.	.	.	.	.	.	.	.	.	.	.
4AA;/	.	.	4c#;/]	.	4e;/	.	4AA;/]	.	.	.	4A;\]	.	.	4c#;\]	.	.	4e;/]	.	.	4c#;\]	.	.	4e;/]	.	.	.	.	.	.	.	.	.	.
!	!	!	!	!LO:DY:b	!LO:TX:b:i:t=Volti Cito	!	!	!	!	!	!	!	!	!	!	!	!	!	!	!	!	!	!	!	!	!	!	!	!	!	!	!	!
4r	X X X	.	4r	p	4r	.	4r	.	.	.	4r	.	.	4r	.	.	4r	.	.	4r	.	.	4r	.	.	.	.	.	.	.	.	.	.
!	!	!	!	!	!LO:PB:g=original	!	!	!	!	!	!LO:PB:g=original	!	!	!LO:LB:g=original	!	!	!	!	!	!	!	!	!	!	!	!	!	!	!	!	!	!	!
=21	=21	=21	=21	=21	=21	=21	=21	=21	=21	=21	=21	=21	=21	=21	=21	=21	=21	=21	=21	=21	=21	=21	=21	=21	=21	=21	=21	=21	=21	=21	=21	=21	=21
*	*	*	*	*	*	*	*	*	*	*	*	*	*	*	*	*	*	*	*	*	*	*	*2\right	*	*	*	*	*	*	*	*	*	*
!LO:TX:a:t=3.	!	!	!	!	!	!LO:DY:b:rj	!LO:TX:a:t=3	!	!	!	!LO:TX:a:t=15.	!	!	!LO:TX:a:t=15.	!	!	!LO:TX:a:t=15.	!	!	!LO:TX:a:t=Solo.	!	!	!LO:TX:a:t=Solo	!	!	!	!	!	!	!	!LO:DY:rj:t=p.	!	!LO:DY:rj:t=p.
0r	.	.	4f'/	.	4f'/	p	0r	.	.	.	00r	.	.	00r	.	.	00r	.	.	2f\	Sa-	.	2a\	Sa-	di-	.	1ryy	1ryy	1ryy	1f	p	[1a	p
.	.	.	4e'/	.	4e'/	.	.	.	.	.	.	.	.	.	.	.	.	.	.	.	.	.	.	.	.	.	.	.	.	.	.	.	.
.	.	.	4d'/	.	4d'/	.	.	.	.	.	.	.	.	.	.	.	.	.	.	2f\	-lus	.	2a\	-lus	-gni-	.	.	.	.	.	.	.	.
.	.	.	4c#X'/	.	4c#X'/	.	.	.	.	.	.	.	.	.	.	.	.	.	.	.	.	.	.	.	.	.	.	.	.	.	.	.	.
!	!	!	!LO:LB:g=original	!	!	!	!	!	!	!	!	!	!	!	!	!	!	!	!	!	!	!	!	!	!	!	!	!	!	!	!	!	!
=22	=22	=22	=22	=22	=22	=22	=22	=22	=22	=22	=22	=22	=22	=22	=22	=22	=22	=22	=22	=22	=22	=22	=22	=22	=22	=22	=22	=22	=22	=22	=22	=22	=22
.	.	.	4d'/	.	4d'/	.	.	.	.	.	.	.	.	.	.	.	.	.	.	2f\	in-	.	2a\	Jn-	-ta-	.	1ryy	1ryy	1ryy	1f	.	1a]	.
.	.	.	4cn'/	.	4cn'/	.	.	.	.	.	.	.	.	.	.	.	.	.	.	.	.	.	.	.	.	.	.	.	.	.	.	.	.
.	.	.	4B-'/	.	4B-'/	.	.	.	.	.	.	.	.	.	.	.	.	.	.	2f\	-fir-	.	2a\	-fir-	-tum	.	.	.	.	.	.	.	.
.	.	.	4A'/	.	4A'/	.	.	.	.	.	.	.	.	.	.	.	.	.	.	.	.	.	.	.	.	.	.	.	.	.	.	.	.
!	!	!	!	!	!	!	!	!	!	!	!	!	!	!	!	!	!	!	!	!LO:LB:g=original	!	!	!	!	!	!	!	!	!	!	!	!	!
=23	=23	=23	=23	=23	=23	=23	=23	=23	=23	=23	=23	=23	=23	=23	=23	=23	=23	=23	=23	=23	=23	=23	=23	=23	=23	=23	=23	=23	=23	=23	=23	=23	=23
1r	.	.	4G/	.	4G/	.	1r	.	.	.	.	.	.	.	.	.	.	.	.	(4f\	-mo-	.	(4.b-\	-mo-	et	.	1ryy	1ryy	1ryy	1g	.	1b-	.
.	.	.	8A'/L	.	8A'/L	.	.	.	.	.	.	.	.	.	.	.	.	.	.	8e\L	.	.	.	.	.	.	.	.	.	.	.	.	.
.	.	.	8B-'/J	.	8B-'/J	.	.	.	.	.	.	.	.	.	.	.	.	.	.	8d\J	.	.	16a\LL	-fi-	ho-	.	.	.	.	.	.	.	.
.	.	.	.	.	.	.	.	.	.	.	.	.	.	.	.	.	.	.	.	.	.	.	16b-\JJ	.	.	.	.	.	.	.	.	.	.
.	.	.	4c/	.	4c/	.	.	.	.	.	.	.	.	.	.	.	.	.	.	2e\)	.	.	4cc\	.	-no-	.	.	.	.	.	.	.	.
.	.	.	8d'/L	.	8d'/L	.	.	.	.	.	.	.	.	.	.	.	.	.	.	.	.	.	4b-\)	.	.	.	.	.	.	.	.	.	.
.	.	.	8e'/J	.	8e'/J	.	.	.	.	.	.	.	.	.	.	.	.	.	.	.	.	.	.	.	.	.	.	.	.	.	.	.	.
=24	=24	=24	=24	=24	=24	=24	=24	=24	=24	=24	=24	=24	=24	=24	=24	=24	=24	=24	=24	=24	=24	=24	=24	=24	=24	=24	=24	=24	=24	=24	=24	=24	=24
!	!	!LO:DY:b	!	!	!	!	!LO:TX:a:rj:t=Solo	!	!	!	!	!	!	!	!	!	!	!	!	!	!	!	!	!	!	!	!	!	!	!	!	!	!
4r	.	p	4f/	.	4f/	.	4r	.	.	.	.	.	.	.	.	.	.	.	.	4f\	-rum	.	4a\	-rum	-rum	.	1ryy	1ryy	1ryy	4f/	.	4a\	.
4F|\	.	.	4r	.	4r	.	4F\	o-	.	.	.	.	.	.	.	.	.	.	.	4r	.	.	4r	.	.	.	.	.	.	4r	.	4r	.
4A|\	.	.	2r	.	2r	.	4A\	-ra	.	.	.	.	.	.	.	.	.	.	.	2r	.	.	2r	.	.	.	.	.	.	2r	.	2r	.
4c|\	.	.	.	.	.	.	4c\	pro	.	.	.	.	.	.	.	.	.	.	.	.	.	.	.	.	.	.	.	.	.	.	.	.	.
!	!	!	!	!	!	!	!	!	!	!	!	!	!	!	!	!	!	!	!	!	!	!	!LO:LB:g=original	!	!	!	!	!	!	!	!	!	!
=25	=25	=25	=25	=25	=25	=25	=25	=25	=25	=25	=25	=25	=25	=25	=25	=25	=25	=25	=25	=25	=25	=25	=25	=25	=25	=25	=25	=25	=25	=25	=25	=25	=25
4A|\	.	.	4f'/	.	4f'/	.	4A\	no-	.	.	00r	.	.	00r	.	.	00r	.	.	1f	Re-	.	1a	Re-	Con-	.	1ryy	1ryy	1ryy	1f	.	[1a	.
4F|\	.	.	4e'/	.	4e'/	.	4F\	-bis	.	.	.	.	.	.	.	.	.	.	.	.	.	.	.	.	.	.	.	.	.	.	.	.	.
2r	.	.	4d'/	.	4d'/	.	2r	.	.	.	.	.	.	.	.	.	.	.	.	.	.	.	.	.	.	.	.	.	.	.	.	.	.
.	.	.	4c#X'/	.	4c#X'/	.	.	.	.	.	.	.	.	.	.	.	.	.	.	.	.	.	.	.	.	.	.	.	.	.	.	.	.
=26	=26	=26	=26	=26	=26	=26	=26	=26	=26	=26	=26	=26	=26	=26	=26	=26	=26	=26	=26	=26	=26	=26	=26	=26	=26	=26	=26	=26	=26	=26	=26	=26	=26
!LO:TX:a:t=2	!	!	!	!	!	!	!LO:TX:a:t=2	!	!	!	!	!	!	!	!	!	!	!	!	!	!	!	!	!	!	!	!	!	!	!	!	!	!
0r	.	.	4d'/	.	4d'/	.	0r	.	.	.	.	.	.	.	.	.	.	.	.	2.f\	-fu-	.	2.a\	-fu-	-tem-	.	1ryy	1ryy	1ryy	1f	.	1a]	.
.	.	.	4cn'/	.	4cn'/	.	.	.	.	.	.	.	.	.	.	.	.	.	.	.	.	.	.	.	.	.	.	.	.	.	.	.	.
.	.	.	4B-'/	.	4B-'/	.	.	.	.	.	.	.	.	.	.	.	.	.	.	.	.	.	.	.	.	.	.	.	.	.	.	.	.
.	.	.	4A'/	.	4A'/	.	.	.	.	.	.	.	.	.	.	.	.	.	.	8f\	-gi-	.	8a\	-gi-	-ptor	.	.	.	.	.	.	.	.
.	.	.	.	.	.	.	.	.	.	.	.	.	.	.	.	.	.	.	.	8f\	-um	.	8a\	-um	con-	.	.	.	.	.	.	.	.
=27	=27	=27	=27	=27	=27	=27	=27	=27	=27	=27	=27	=27	=27	=27	=27	=27	=27	=27	=27	=27	=27	=27	=27	=27	=27	=27	=27	=27	=27	=27	=27	=27	=27
.	.	.	4G/	.	4G/	.	.	.	.	.	.	.	.	.	.	.	.	.	.	4f\	pec-	.	4.b-\	pec-	-temp-	.	1ryy	1ryy	1ryy	1g	.	1b-	.
.	.	.	8A'/L	.	8A'/L	.	.	.	.	.	.	.	.	.	.	.	.	.	.	(8e\L	-ca-	.	.	.	.	.	.	.	.	.	.	.	.
.	.	.	8B-'/J	.	8B-'/J	.	.	.	.	.	.	.	.	.	.	.	.	.	.	8d\J)	.	.	(16a\LL	-ca-	.	.	.	.	.	.	.	.	.
.	.	.	.	.	.	.	.	.	.	.	.	.	.	.	.	.	.	.	.	.	.	.	16b-\JJ)	.	.	.	.	.	.	.	.	.	.
.	.	.	4c/	.	4c/	.	.	.	.	.	.	.	.	.	.	.	.	.	.	2e\	-to-	.	4cc\	-to-	.	.	.	.	.	.	.	.	.
.	.	.	8d'/L	.	8d'/L	.	.	.	.	.	.	.	.	.	.	.	.	.	.	.	.	.	4b-\	.	-to-	.	.	.	.	.	.	.	.
.	.	.	8e'/J	.	8e'/J	.	.	.	.	.	.	.	.	.	.	.	.	.	.	.	.	.	.	.	.	.	.	.	.	.	.	.	.
!	!	!	!	!	!LO:LB:g=original	!	!	!	!	!	!	!	!	!	!	!	!	!	!	!	!	!	!	!	!	!	!	!	!	!	!	!	!
=28	=28	=28	=28	=28	=28	=28	=28	=28	=28	=28	=28	=28	=28	=28	=28	=28	=28	=28	=28	=28	=28	=28	=28	=28	=28	=28	=28	=28	=28	=28	=28	=28	=28
4r	.	.	4f/	.	4f/	.	4r	.	.	.	.	.	.	.	.	.	.	.	.	4f\	-rum	.	4a\	-rum	-rum	.	1ryy	1ryy	1ryy	4f/	.	4a\	.
4F|\	.	.	4r	.	4r	.	4F\	o-	.	.	.	.	.	.	.	.	.	.	.	4r	.	.	4r	.	.	.	.	.	.	4r	.	4r	.
4A|\	.	.	2r	.	2r	.	4A\	-ra	.	.	.	.	.	.	.	.	.	.	.	2r	.	.	2r	.	.	.	.	.	.	2r	.	2r	.
4c|\	.	.	.	.	.	.	4c\	pro	.	.	.	.	.	.	.	.	.	.	.	.	.	.	.	.	.	.	.	.	.	.	.	.	.
!	!	!	!	!	!	!	!	!	!	!	!	!	!	!	!	!	!	!	!	!	!	!	!	!	!	!	!	!	!	!LO:LB:g=original	!	!	!
=29	=29	=29	=29	=29	=29	=29	=29	=29	=29	=29	=29	=29	=29	=29	=29	=29	=29	=29	=29	=29	=29	=29	=29	=29	=29	=29	=29	=29	=29	=29	=29	=29	=29
4A|\	.	.	4d'/	.	4d'/	.	4A\	no-	.	.	00r	.	.	00r	.	.	00r	.	.	2d\	Con-	.	2f/	Con-	.	.	1ryy	1ryy	1ryy	1d	.	[1f	.
4F|\	.	.	4c'/	.	4c'/	.	4F\	-bis	.	.	.	.	.	.	.	.	.	.	.	.	.	.	.	.	.	.	.	.	.	.	.	.	.
2r	.	.	4B-'/	.	4B-'/	.	2r	.	.	.	.	.	.	.	.	.	.	.	.	2d\	-so-	.	2f/	-so-	.	.	.	.	.	.	.	.	.
.	.	.	4A'/	.	4A'/	.	.	.	.	.	.	.	.	.	.	.	.	.	.	.	.	.	.	.	.	.	.	.	.	.	.	.	.
!	!	!	!LO:LB:g=original	!	!	!	!	!	!	!	!	!	!	!	!	!	!	!	!	!	!	!	!	!	!	!	!	!	!	!	!	!	!
=30	=30	=30	=30	=30	=30	=30	=30	=30	=30	=30	=30	=30	=30	=30	=30	=30	=30	=30	=30	=30	=30	=30	=30	=30	=30	=30	=30	=30	=30	=30	=30	=30	=30
!LO:TX:a:t=2	!	!	!	!	!	!	!LO:TX:a:t=2.	!	!	!	!	!	!	!	!	!	!	!	!	!	!	!	!	!	!	!	!	!	!	!	!	!	!
0r	.	.	4B-'/	.	4B-'/	.	0r	.	.	.	.	.	.	.	.	.	.	.	.	2d\	-la-	.	2f/	-la-	.	.	1ryy	1ryy	1ryy	1d	.	1f]	.
.	.	.	4A'/	.	4A'/	.	.	.	.	.	.	.	.	.	.	.	.	.	.	.	.	.	.	.	.	.	.	.	.	.	.	.	.
.	.	.	4G'/	.	4G'/	.	.	.	.	.	.	.	.	.	.	.	.	.	.	2d\	-trix	.	2f/	-trix	.	.	.	.	.	.	.	.	.
.	.	.	4f'/	.	4f'/	.	.	.	.	.	.	.	.	.	.	.	.	.	.	.	.	.	.	.	.	.	.	.	.	.	.	.	.
!	!	!	!	!	!	!	!	!	!	!	!	!	!	!	!	!	!	!	!	!	!	!	!LO:LB:g=original	!	!	!	!	!	!	!	!	!	!
=31	=31	=31	=31	=31	=31	=31	=31	=31	=31	=31	=31	=31	=31	=31	=31	=31	=31	=31	=31	=31	=31	=31	=31	=31	=31	=31	=31	=31	=31	=31	=31	=31	=31
.	.	.	4g/	.	4g/	.	.	.	.	.	.	.	.	.	.	.	.	.	.	4d\	af-	.	4.g/	af-	.	.	1ryy	1ryy	1ryy	1enX	.	1g	.
.	.	.	8f'/L	.	8f'/L	.	.	.	.	.	.	.	.	.	.	.	.	.	.	(8c#X\L	-fli-	.	.	.	.	.	.	.	.	.	.	.	.
.	.	.	8e'/J	.	8e'/J	.	.	.	.	.	.	.	.	.	.	.	.	.	.	8Bn\J)	.	.	16f/LL	-flic-	.	.	.	.	.	.	.	.	.
.	.	.	.	.	.	.	.	.	.	.	.	.	.	.	.	.	.	.	.	.	.	.	16g/JJ	.	.	.	.	.	.	.	.	.	.
.	.	.	4a'/	.	4a/	.	.	.	.	.	.	.	.	.	.	.	.	.	.	2c#\	-cto-	.	(4a/	-to-	.	.	.	.	.	.	.	.	.
.	.	.	4A'/	.	4A/	.	.	.	.	.	.	.	.	.	.	.	.	.	.	.	.	.	4g/)	.	.	.	.	.	.	.	.	.	.
!	!	!	!	!	!	!	!LO:PB:g=original	!	!	!	!	!	!	!	!	!	!	!	!	!LO:LB:g=original	!	!	!	!	!	!	!	!	!	!	!	!	!
=32	=32	=32	=32	=32	=32	=32	=32	=32	=32	=32	=32	=32	=32	=32	=32	=32	=32	=32	=32	=32	=32	=32	=32	=32	=32	=32	=32	=32	=32	=32	=32	=32	=32
4r	.	.	4d/	.	4d/	.	4r	.	.	.	.	.	.	.	.	.	.	.	.	4d\	-rum	.	4f/	-rum	.	.	1ryy	1ryy	1ryy	4d/	.	4f/	.
4D|\	.	.	4r	.	4r	.	4D\	o-	.	.	.	.	.	.	.	.	.	.	.	4r	.	.	4r	.	.	.	.	.	.	4r	.	4r	.
4F|\	.	.	2r	.	2r	.	4F\	-ra	.	.	.	.	.	.	.	.	.	.	.	2r	.	.	2r	.	.	.	.	.	.	2r	.	2r	.
4A|\	.	.	.	.	.	.	4A\	pro	.	.	.	.	.	.	.	.	.	.	.	.	.	.	.	.	.	.	.	.	.	.	.	.	.
!	!	!	!	!	!	!	!	!	!	!	!	!	!	!	!	!	!	!	!	!	!	!	!	!	!	!	!	!	!	!	!	!LO:LB:g=original	!
=33	=33	=33	=33	=33	=33	=33	=33	=33	=33	=33	=33	=33	=33	=33	=33	=33	=33	=33	=33	=33	=33	=33	=33	=33	=33	=33	=33	=33	=33	=33	=33	=33	=33
4F|\	.	.	4d'/	.	4d'/	.	4F\	no-	.	.	0r	.	.	0r	.	.	0r	.	.	1d	Au-	.	1f	Au-	.	.	1ryy	1ryy	1ryy	1d	.	[1f	.
4D|\	.	.	4c'/	.	4c'/	.	4D\	-bis	.	.	.	.	.	.	.	.	.	.	.	.	.	.	.	.	.	.	.	.	.	.	.	.	.
2r	.	.	4B-'/	.	4B-'/	.	2r	.	.	.	.	.	.	.	.	.	.	.	.	.	.	.	.	.	.	.	.	.	.	.	.	.	.
.	.	.	4A'/	.	4A'/	.	.	.	.	.	.	.	.	.	.	.	.	.	.	.	.	.	.	.	.	.	.	.	.	.	.	.	.
!LO:LB:g=original	!	!	!	!	!	!	!	!	!	!	!	!	!	!	!	!	!	!	!	!	!	!	!	!	!	!	!	!	!	!	!	!	!
=34	=34	=34	=34	=34	=34	=34	=34	=34	=34	=34	=34	=34	=34	=34	=34	=34	=34	=34	=34	=34	=34	=34	=34	=34	=34	=34	=34	=34	=34	=34	=34	=34	=34
!LO:TX:a:t=2	!	!	!	!	!	!	!LO:TX:a:t=2	!	!	!	!	!	!	!	!	!	!	!	!	!	!	!	!	!	!	!	!	!	!	!	!	!	!
0r	.	.	4B-'/	.	4B-'/	.	0r	.	.	.	.	.	.	.	.	.	.	.	.	2.d\	-xi-	.	2.f/	-xi-	.	.	1ryy	1ryy	1ryy	1d	.	1f]	.
.	.	.	4A'/	.	4A'/	.	.	.	.	.	.	.	.	.	.	.	.	.	.	.	.	.	.	.	.	.	.	.	.	.	.	.	.
.	.	.	4G'/	.	4G'/	.	.	.	.	.	.	.	.	.	.	.	.	.	.	.	.	.	.	.	.	.	.	.	.	.	.	.	.
.	.	.	4f'/	.	4f'/	.	.	.	.	.	.	.	.	.	.	.	.	.	.	8d\	-li-	.	8f/	-li-	.	.	.	.	.	.	.	.	.
.	.	.	.	.	.	.	.	.	.	.	.	.	.	.	.	.	.	.	.	8d\	-um	.	8f/	-um	.	.	.	.	.	.	.	.	.
=35	=35	=35	=35	=35	=35	=35	=35	=35	=35	=35	=35	=35	=35	=35	=35	=35	=35	=35	=35	=35	=35	=35	=35	=35	=35	=35	=35	=35	=35	=35	=35	=35	=35
.	.	.	4g/	.	4g/	.	.	.	.	.	1r	.	.	1r	.	.	1r	.	.	4d\	Chri-	.	4.g/	Chri-	.	.	1ryy	1ryy	1ryy	1e	.	1g	.
.	.	.	8f'/L	.	8f'/L	.	.	.	.	.	.	.	.	.	.	.	.	.	.	8c#X\	-sti-	.	.	.	.	.	.	.	.	.	.	.	.
.	.	.	8e'/J	.	8e'/J	.	.	.	.	.	.	.	.	.	.	.	.	.	.	8Bn\	-a-	.	16f/	-sti-	.	.	.	.	.	.	.	.	.
.	.	.	.	.	.	.	.	.	.	.	.	.	.	.	.	.	.	.	.	.	.	.	16g/	-a-	.	.	.	.	.	.	.	.	.
.	.	.	4a/	.	4a/	.	.	.	.	.	.	.	.	.	.	.	.	.	.	2c#\	-no-	.	(4a/	-no-	.	.	.	.	.	.	.	.	.
!	!	!LO:DY:b:t=f.	!	!	!	!	!	!	!	!	!	!	!	!	!	!	!	!	!	!	!	!	!	!	!	!	!	!	!	!	!	!	!
.	.	f	4A/	.	4A/	.	.	.	.	.	.	.	.	.	.	.	.	.	.	.	.	.	4g/)	.	.	.	.	.	.	.	.	.	.
!	!	!	!	!	!LO:LB:g=original	!	!	!	!	!	!	!	!	!	!	!	!LO:LB:g=original	!	!	!	!	!	!LO:LB:g=original	!	!	!	!	!	!	!	!	!	!
=36	=36	=36	=36	=36	=36	=36	=36	=36	=36	=36	=36	=36	=36	=36	=36	=36	=36	=36	=36	=36	=36	=36	=36	=36	=36	=36	=36	=36	=36	=36	=36	=36	=36
!	!	!	!	!	!	!	!LO:TX:a:t=Tutti	!	!	!	!	!	!LO:DY:b:t=f.	!LO:TX:a:t=Tutti	!	!	!	!	!LO:DY:b	!	!	!	!LO:TX:a:t=Tutti	!	!	!	!	!	!	!	!	!	!
8.D\L	8_ 5_ 3_	.	4d/	.	4d/	.	4r	.	.	.	4r	.	f	4r	.	.	4r	.	f	4d\	-rum	.	4f/	-rum	.	.	1ryy	1ryy	1ryy	4d/	.	4f/	f
!	!	!	!	!LO:DY:b	!	!LO:DY:b	!	!	!	!LO:DY:b:t=f.	!	!	!	!	!	!LO:DY:b	!	!	!	!LO:TX:a:t=Tutti	!	!LO:DY:b:t=f.	!	!	!	!LO:DY:b:t=f.	!	!	!	!	!	!	!
16D\K	.	.	.	f	.	f	.	.	.	f	.	.	.	.	.	f	.	.	.	.	.	f	.	.	.	f	.	.	.	.	f	.	.
*	*	*	*	*	*	*	*	*	*	*	*	*	*	*	*	*	*	*	*	*	*	*	*	*	*	*	*	*	*	*2\right	*	*2\right	*
!	!	!	!	!	!	!	!	!	!	!	!	!	!	!	!	!	!LO:TX:a:t=Tutti	!	!	!	!	!	!	!	!	!	!	!	!	!	!	!	!
8.F\	.	.	4f/	.	4dd\	.	4D\	o-	.	.	4A\	o-	.	4f\	o-	.	4dd\	o-	.	4f\	o-	.	4dd\	o-	.	.	.	.	.	2dd\	.	2ff\	.
16A\Jk	.	.	.	.	.	.	.	.	.	.	.	.	.	.	.	.	.	.	.	.	.	.	.	.	.	.	.	.	.	.	.	.	.
4d\	.	.	8.r	.	8.r	.	4F\	-ra	.	.	4A\	-ra	.	4f\	-ra	.	4dd\	-ra	.	4f\	-ra	.	4dd\	-ra	.	.	.	.	.	.	.	.	.
.	.	.	16f/KL	.	16dd\KL	.	.	.	.	.	.	.	.	.	.	.	.	.	.	.	.	.	.	.	.	.	.	.	.	.	.	.	.
4r	.	.	8.a/	.	8.ff\	.	4D\	pro	.	.	4A\	pro	.	4f\	pro	.	4dd\	pro	.	4f\	pro	.	4dd\	pro	.	.	.	.	.	4dd\	.	4ff\	.
!	!	!	!LO:TX:t=P:problem:takty wykreślony	!	!	!	!	!	!	!	!	!	!	!	!	!	!	!	!	!	!	!	!	!	!	!	!	!	!	!	!	!	!
.	.	.	16f/Jk	.	16dd\Jk	.	.	.	.	.	.	.	.	.	.	.	.	.	.	.	.	.	.	.	.	.	.	.	.	.	.	.	.
!	!	!	!LO:LB:g=original	!	!	!	!	!	!	!	!	!	!	!	!	!	!	!	!	!	!	!	!	!	!	!	!	!	!	!	!	!	!
=37	=37	=37	=37	=37	=37	=37	=37	=37	=37	=37	=37	=37	=37	=37	=37	=37	=37	=37	=37	=37	=37	=37	=37	=37	=37	=37	=37	=37	=37	=37	=37	=37	=37
8.AA\L	.	.	4f/	.	4dd\	.	4A\	no-	.	.	4A\	no-	.	4f\	no-	.	4dd\	no-	.	4f\	no-	.	4dd\	no-	.	.	1ryy	1ryy	1ryy	4dd\	.	4ff\	.
16AA\K	.	.	.	.	.	.	.	.	.	.	.	.	.	.	.	.	.	.	.	.	.	.	.	.	.	.	.	.	.	.	.	.	.
8.C#X\	#	.	4e/	.	4cc#X\	.	4AA/	-bis	.	.	4A\	-bis	.	4e\	-bis	.	4cc#X\	-bis	.	4e\	-bis	.	4cc#X\	-bis	.	.	.	.	.	4cc#X\	.	4ee\	.
16E\Jk	.	.	.	.	.	.	.	.	.	.	.	.	.	.	.	.	.	.	.	.	.	.	.	.	.	.	.	.	.	.	.	.	.
4A\	5_	.	8.r	.	8.r	.	4r	.	.	.	4r	.	.	4r	.	.	4r	.	.	4r	.	.	4r	.	.	.	.	.	.	4r	.	4r	.
.	.	.	16g/KL	.	16ee\KL	.	.	.	.	.	.	.	.	.	.	.	.	.	.	.	.	.	.	.	.	.	.	.	.	.	.	.	.
4r	.	.	8.b-/	.	8.gg\	.	4A\	pro	.	.	4c#X\	pro	.	4g\	pro	.	4ee\	pro	.	4g\	pro	.	4ee\	pro	.	.	.	.	.	4ee\	.	4gg\	.
.	.	.	16g/Jk	.	16ee\Jk	.	.	.	.	.	.	.	.	.	.	.	.	.	.	.	.	.	.	.	.	.	.	.	.	.	.	.	.
=38	=38	=38	=38	=38	=38	=38	=38	=38	=38	=38	=38	=38	=38	=38	=38	=38	=38	=38	=38	=38	=38	=38	=38	=38	=38	=38	=38	=38	=38	=38	=38	=38	=38
8.D\L	.	.	4g/	.	4ee\	.	4d\	no-	.	.	4c#X\	no-	.	4g\	no-	.	4ee\	no-	.	4g\	no-	.	4ee\	no-	.	.	1ryy	1ryy	1ryy	4ee\	.	4gg\	.
16D\K	.	.	.	.	.	.	.	.	.	.	.	.	.	.	.	.	.	.	.	.	.	.	.	.	.	.	.	.	.	.	.	.	.
8.F\	6	.	4f/	.	4dd\	.	4D\	-bis	.	.	4d\	-bis	.	4f\	-bis	.	4dd\	-bis	.	4f\	-bis	.	4dd\	-bis	.	.	.	.	.	4dd\	.	4ff\	.
16A\Jk	.	.	.	.	.	.	.	.	.	.	.	.	.	.	.	.	.	.	.	.	.	.	.	.	.	.	.	.	.	.	.	.	.
4d\	3_	.	8.r	.	8.r	.	4r	.	.	.	4r	.	.	4r	.	.	4r	.	.	4r	.	.	4r	.	.	.	.	.	.	4r	.	4r	.
.	.	.	16f/KL	.	16dd\KL	.	.	.	.	.	.	.	.	.	.	.	.	.	.	.	.	.	.	.	.	.	.	.	.	.	.	.	.
4r	.	.	8.a/	.	8.ff\	.	(4D\	o-	.	.	[4d\	o-	.	[4a\	o-	.	[4ff\	o-	.	[4a\	o-	.	[4ff\	o-	.	.	.	.	.	4a\	.	4ff\	.
.	.	.	16a/Jk	.	16ff\Jk	.	.	.	.	.	.	.	.	.	.	.	.	.	.	.	.	.	.	.	.	.	.	.	.	.	.	.	.
!	!	!	!	!	!	!	!	!	!	!	!	!	!	!	!	!	!	!	!	!LO:LB:g=original	!	!	!	!	!	!	!	!	!	!	!	!	!
=39	=39	=39	=39	=39	=39	=39	=39	=39	=39	=39	=39	=39	=39	=39	=39	=39	=39	=39	=39	=39	=39	=39	=39	=39	=39	=39	=39	=39	=39	=39	=39	=39	=39
*	*	*	*	*	*	*	*	*	*	*	*	*	*	*	*	*	*2\right	*	*	*	*	*	*	*	*	*	*	*	*	*	*	*	*
8.G\L	7_ 2_	.	8.a/L	.	8.ff\L	.	2G\)	.	.	.	2d\]	.	.	2a\]	.	.	2ff\]	.	.	2a\]	.	.	2ff\]	.	.	.	1ryy	1ryy	1ryy	2a\	.	2ff\	.
16G\K	.	.	16a/K	.	16ff\K	.	.	.	.	.	.	.	.	.	.	.	.	.	.	.	.	.	.	.	.	.	.	.	.	.	.	.	.
8.G\	.	.	8.a/	.	8.ff\	.	.	.	.	.	.	.	.	.	.	.	.	.	.	.	.	.	.	.	.	.	.	.	.	.	.	.	.
16G\Jk	.	.	16a/Jk	.	16ff\Jk	.	.	.	.	.	.	.	.	.	.	.	.	.	.	.	.	.	.	.	.	.	.	.	.	.	.	.	.
8.G\L	6 3	.	8.g/L	.	8.ee\L	.	4G\	-ra	.	.	4e\	-ra	.	4g\	-ra	.	4ee\	-ra	.	4g\	-ra	.	4ee\	-ra	.	.	.	.	.	4g/	.	4ee\	.
16G\K	.	.	16g/K	.	16ee\K	.	.	.	.	.	.	.	.	.	.	.	.	.	.	.	.	.	.	.	.	.	.	.	.	.	.	.	.
8.G#X\	5_	.	8.f/	.	8.dd\	.	4G#X\	pro	.	.	4f\	pro	.	4bn\	pro	.	4dd\	pro	.	4bn\	pro	.	4dd\	pro	.	.	.	.	.	4f/	.	4dd\	.
16G#\Jk	.	.	16f/Jk	.	16dd\Jk	.	.	.	.	.	.	.	.	.	.	.	.	.	.	.	.	.	.	.	.	.	.	.	.	.	.	.	.
!LO:LB:g=original	!	!	!	!	!	!	!LO:LB:g=original	!	!	!	!	!	!	!	!	!	!	!	!	!	!	!	!LO:LB:g=original	!	!	!	!	!	!	!	!	!	!
=40	=40	=40	=40	=40	=40	=40	=40	=40	=40	=40	=40	=40	=40	=40	=40	=40	=40	=40	=40	=40	=40	=40	=40	=40	=40	=40	=40	=40	=40	=40	=40	=40	=40
4A\	4	.	4f/	.	4dd\	.	4A\	no-	.	.	4f\	no-	.	4a\	no-	.	4dd\	no-	.	4a\	no-	.	4dd\	no-	.	.	1ryy	1ryy	1ryy	4f/	.	4dd\	.
4AA/	#	.	4e/	.	4cc#X\	.	4AA/	-bis	.	.	4e\	-bis	.	4a\	-bis	.	4cc#X\	-bis	.	4a\	-bis	.	4cc#X\	-bis	.	.	.	.	.	4e/	.	4cc#X\	.
4r	.	.	4r	.	4r	.	4r	.	.	.	4r	.	.	4r	.	.	4r	.	.	4r	.	.	4r	.	.	.	.	.	.	2r	.	2r	.
!LO:TX:a:t=Pedale	!	!LO:DY:b:rj	!	!LO:DY:b:rj	!	!LO:DY:b:rj	!	!	!	!LO:DY:b:rj	!	!	!LO:DY:b:rj	!	!	!LO:DY:b:rj	!	!	!LO:DY:b:rj	!	!	!LO:DY:b:rj:t=p.	!	!	!	!LO:DY:b:rj	!	!	!	!	!	!	!
4AA/	.	p	(4c#X/	p	(4e/	p	4AA/	o-	.	p	4A\	o-	p	4c#X\	o-	p	4e/	o-	pp	4c#X\	o-	p	4e/	o-	.	p	.	.	.	.	.	.	.
!	!	!	!	!	!LO:LB:g=original	!	!	!	!	!	!	!	!	!LO:LB:g=original	!	!	!	!	!	!	!	!	!	!	!	!	!	!	!	!LO:LB:g=original	!	!	!
=41	=41	=41	=41	=41	=41	=41	=41	=41	=41	=41	=41	=41	=41	=41	=41	=41	=41	=41	=41	=41	=41	=41	=41	=41	=41	=41	=41	=41	=41	=41	=41	=41	=41
!	!	!	!	!	!	!	!	!	!	!	!	!	!	!	!	!	!	!	!	!	!	!	!	!	!	!	!	!	!	!LO:TX:a:t=5	!	!LO:TX:a:t=5	!
1AA	.	.	8dL 8A'/)	.	8f/L)	.	2AA/	-ra	.	.	2A\	-ra	.	2d\	-ra	.	2f/	-ra	.	2d\	-ra	.	2f/	-ra	.	.	1ryy	1ryy	1ryy	00r	.	00r	.
.	.	.	8dJ 8A'/	.	8f'/J	.	.	.	.	.	.	.	.	.	.	.	.	.	.	.	.	.	.	.	.	.	.	.	.	.	.	.	.
.	.	.	8r	.	8r	.	.	.	.	.	.	.	.	.	.	.	.	.	.	.	.	.	.	.	.	.	.	.	.	.	.	.	.
.	.	.	8d [8A/	.	[8f/	.	.	.	.	.	.	.	.	.	.	.	.	.	.	.	.	.	.	.	.	.	.	.	.	.	.	.	.
.	.	.	8dL 8A/]	.	8f/L]	.	2AA/	pro	.	.	2A\	pro	.	2d\	pro	.	2f/	pro	.	2d\	pro	.	2f/	pro	.	.	.	.	.	.	.	.	.
.	.	.	8dJ 8A'/	.	8f'/J	.	.	.	.	.	.	.	.	.	.	.	.	.	.	.	.	.	.	.	.	.	.	.	.	.	.	.	.
.	.	.	8r	.	8r	.	.	.	.	.	.	.	.	.	.	.	.	.	.	.	.	.	.	.	.	.	.	.	.	.	.	.	.
.	.	.	(8d 8A/	.	(8f/	.	.	.	.	.	.	.	.	.	.	.	.	.	.	.	.	.	.	.	.	.	.	.	.	.	.	.	.
!	!	!	!	!	!	!	!	!	!	!	!LO:LB:g=original	!	!	!	!	!	!	!	!	!	!	!	!	!	!	!	!	!	!	!	!	!	!
=42	=42	=42	=42	=42	=42	=42	=42	=42	=42	=42	=42	=42	=42	=42	=42	=42	=42	=42	=42	=42	=42	=42	=42	=42	=42	=42	=42	=42	=42	=42	=42	=42	=42
1AA	.	.	8c#X/L)	.	8e/L)	.	4AA/	no-	.	.	4A\	no-	.	4c#X\	no-	.	4e/	no-	.	4c#X\	no-	.	4e/	no-	.	.	1ryy	1ryy	1ryy	.	.	.	.
.	.	.	8c#'/J	.	8e'/J	.	.	.	.	.	.	.	.	.	.	.	.	.	.	.	.	.	.	.	.	.	.	.	.	.	.	.	.
.	.	.	8r	.	8r	.	4AA/	-bis	.	.	4A\	-bis	.	4c#\	-bis	.	4e/	-bis	.	4c#\	-bis	.	4e/	-bis	.	.	.	.	.	.	.	.	.
.	.	.	[8c#/	.	[8e/	.	.	.	.	.	.	.	.	.	.	.	.	.	.	.	.	.	.	.	.	.	.	.	.	.	.	.	.
.	.	.	8c#/L]	.	8e/L]	.	4r	.	.	.	4r	.	.	4r	.	.	4r	.	.	4r	.	.	4r	.	.	.	.	.	.	.	.	.	.
.	.	.	8c#'/J	.	8e'/J	.	.	.	.	.	.	.	.	.	.	.	.	.	.	.	.	.	.	.	.	.	.	.	.	.	.	.	.
.	.	.	8r	.	8r	.	4AA/	o-	.	.	4A\	o-	.	4c#\	o-	.	4e/	o-	.	4c#\	o-	.	4e/	o-	.	.	.	.	.	.	.	.	.
.	.	.	(8c#/	.	(8e/	.	.	.	.	.	.	.	.	.	.	.	.	.	.	.	.	.	.	.	.	.	.	.	.	.	.	.	.
!	!	!	!LO:LB:g=original	!	!	!	!	!	!	!	!	!	!	!	!	!	!LO:LB:g=original	!	!	!	!	!	!	!	!	!	!	!	!	!	!	!	!
=43	=43	=43	=43	=43	=43	=43	=43	=43	=43	=43	=43	=43	=43	=43	=43	=43	=43	=43	=43	=43	=43	=43	=43	=43	=43	=43	=43	=43	=43	=43	=43	=43	=43
1AA	.	.	8dL 8A/)	.	8f/L)	.	4AA/	-ra	.	.	4A\	-ra	.	4d\	-ra	.	4f/	-ra	.	4d\	-ra	.	4f/	-ra	.	.	1ryy	1ryy	1ryy	.	.	.	.
.	.	.	8dJ 8A'/	.	8f'/J	.	.	.	.	.	.	.	.	.	.	.	.	.	.	.	.	.	.	.	.	.	.	.	.	.	.	.	.
.	.	.	8r	.	8r	.	4AA/	pro	.	.	4A\	pro	.	4d\	pro	.	4f/	pro	.	4d\	pro	.	4f/	pro	.	.	.	.	.	.	.	.	.
.	.	.	8d [8A/	.	[8f/	.	.	.	.	.	.	.	.	.	.	.	.	.	.	.	.	.	.	.	.	.	.	.	.	.	.	.	.
.	.	.	8dL 8A/]	.	8f/L]	.	2AA/	no-	.	.	2A\	no-	.	2d\	no-	.	2f/	no-	.	2d\	no-	.	2f/	no-	.	.	.	.	.	.	.	.	.
.	.	.	8dJ 8A'/	.	8f'/J	.	.	.	.	.	.	.	.	.	.	.	.	.	.	.	.	.	.	.	.	.	.	.	.	.	.	.	.
.	.	.	8r	.	8r	.	.	.	.	.	.	.	.	.	.	.	.	.	.	.	.	.	.	.	.	.	.	.	.	.	.	.	.
.	.	.	(8d 8A/	.	8f/	.	.	.	.	.	.	.	.	.	.	.	.	.	.	.	.	.	.	.	.	.	.	.	.	.	.	.	.
!	!	!	!	!	!	!	!	!	!	!	!	!	!	!	!	!	!	!	!	!	!	!	!LO:LB:g=original	!	!	!	!	!	!	!	!	!	!
=44	=44	=44	=44	=44	=44	=44	=44	=44	=44	=44	=44	=44	=44	=44	=44	=44	=44	=44	=44	=44	=44	=44	=44	=44	=44	=44	=44	=44	=44	=44	=44	=44	=44
4AA/	.	.	4c#X/)	.	4e/	.	4AA/	-bis	.	.	4A\	-bis	.	4c#X\	-bis	.	4e/	-bis	.	4c#X\	-bis	.	4e/	-bis	.	.	1ryy	1ryy	1ryy	.	.	.	.
4r	.	.	4r	.	4r	.	4r	.	.	.	4r	.	.	4r	.	.	4r	.	.	4r	.	.	4r	.	.	.	.	.	.	.	.	.	.
4AA/	.	.	4c#/	.	4e/	.	2r	.	.	.	2r	.	.	2r	.	.	2r	.	.	2r	.	.	2r	.	.	.	.	.	.	.	.	.	.
4AA/	.	.	4c#/	.	4e/	.	.	.	.	.	.	.	.	.	.	.	.	.	.	.	.	.	.	.	.	.	.	.	.	.	.	.	.
=45	=45	=45	=45	=45	=45	=45	=45	=45	=45	=45	=45	=45	=45	=45	=45	=45	=45	=45	=45	=45	=45	=45	=45	=45	=45	=45	=45	=45	=45	=45	=45	=45	=45
!	!	!	!	!	!	!	!	!	!	!	!	!	!	!	!	!	!	!	!	!	!	!	!LO:TX:b:i:t=Volti Regina	!	!	!	!LO:TX:b:i:t=Volti Regina	!	!	!	!	!	!
2AA;/	.	.	2c#X;/	.	2e;/	.	1r;	.	.	.	1r;	.	.	1r;	.	.	1r;	.	.	1r;	.	.	1r;	.	.	.	1ryy	1ryy	1ryy	1r;	.	1r;	.
2r	.	.	2r	.	2r	.	.	.	.	.	.	.	.	.	.	.	.	.	.	.	.	.	.	.	.	.	.	.	.	.	.	.	.
==	==	==	==	==	==	==	==	==	==	==	==	==	==	==	==	==	==	==	==	==	==	==	==	==	==	==	==	==	==	==	==	==	==
*-	*-	*-	*-	*-	*-	*-	*-	*-	*-	*-	*-	*-	*-	*-	*-	*-	*-	*-	*-	*-	*-	*-	*-	*-	*-	*-	*-	*-	*-	*-	*-	*-	*-
!!!system-decoration: [(g1)][(g2)][(g3)][(g4)][(g5)]s14
!!!RDF**kern: < = below
!!!RDF**kern: | = vertical stroke
!!!ENC: Andrzej Gręziak
!!!END: 2020-10-19
!!!ENC: Marta Lawrence
!!!END: 2021-01-16
